packages/foundations/assets/icons/functional/images/editing/bin_12.svg

<svg width="12" height="12" viewBox="0 0 12 12" fill="none" xmlns="http://www.w3.org/2000/svg">
<g clip-path="url(#clip0_2204_2791)">
<path fill-rule="evenodd" clip-rule="evenodd" d="M1.2 4.8C1.2 4.4625 1.4625 4.2 1.8 4.2H2.4C3.05625 4.2 3.6 4.8 3.6 5.4V9.6H8.41875V5.4C8.41875 4.8 8.9625 4.2 9.6 4.2H10.2C10.5375 4.2 10.8 4.4625 10.8 4.8C10.8 5.1375 10.5375 5.4 10.2 5.4H9.61875V9.7125C9.61875 10.3503 9.03863 10.8 8.41875 10.8H3.6C2.96139 10.8 2.4 10.3503 2.4 9.7125V5.4H1.8C1.4625 5.4 1.2 5.1375 1.2 4.8ZM1.2 3C1.2 2.6625 1.4625 2.4 1.8 2.4H4.2V1.8C4.2 1.4625 4.4625 1.2 4.8 1.2H7.2C7.35 1.2 7.51875 1.25625 7.63125 1.36875C7.74375 1.48125 7.8 1.63125 7.8 1.8V2.4H10.2C10.5375 2.4 10.8 2.6625 10.8 3C10.8 3.3375 10.5375 3.6 10.2 3.6H1.8C1.4625 3.6 1.2 3.3375 1.2 3ZM4.2 8.4V5.4C4.2 5.0625 4.4625 4.8 4.8 4.8C5.1375 4.8 5.4 5.0625 5.4 5.4V8.4C5.4 8.71875 5.1375 9 4.8 9C4.65 9 4.48125 8.925 4.36875 8.8125C4.25625 8.7 4.2 8.55 4.2 8.4ZM6.6 8.4V5.4C6.6 5.0625 6.8625 4.8 7.2 4.8C7.5375 4.8 7.8 5.0625 7.8 5.4V8.4C7.8 8.71875 7.5375 9 7.2 9C7.05 9 6.88125 8.925 6.76875 8.8125C6.65625 8.7 6.6 8.55 6.6 8.4Z" fill="#1A1C1F"/>
</g>
<defs>
<clipPath id="clip0_2204_2791">
<rect width="12" height="12" fill="white"/>
</clipPath>
</defs>
</svg>

<svg xmlns="http://www.w3.org/2000/svg" width="12" height="12" fill="none"><g clip-path="url(#a)"><path fill="#1A1C1F" fill-rule="evenodd" d="M1.2 4.8c0-.337.262-.6.6-.6h.6c.656 0 1.2.6 1.2 1.2v4.2h4.819V5.4c0-.6.543-1.2 1.181-1.2h.6c.338 0 .6.263.6.6 0 .338-.263.6-.6.6h-.581v4.313c0 .637-.58 1.087-1.2 1.087H3.6c-.639 0-1.2-.45-1.2-1.088V5.4h-.6a.59.59 0 0 1-.6-.6m0-1.8c0-.337.262-.6.6-.6h2.4v-.6c0-.338.263-.6.6-.6h2.4c.15 0 .319.056.431.169A.6.6 0 0 1 7.8 1.8v.6h2.4c.338 0 .6.263.6.6s-.263.6-.6.6H1.8a.59.59 0 0 1-.6-.6m3 5.4v-3c0-.338.263-.6.6-.6.338 0 .6.263.6.6v3c0 .319-.263.6-.6.6a.65.65 0 0 1-.431-.187A.58.58 0 0 1 4.2 8.4m2.4 0v-3c0-.338.263-.6.6-.6s.6.263.6.6v3c0 .319-.263.6-.6.6a.65.65 0 0 1-.431-.187A.58.58 0 0 1 6.6 8.4" clip-rule="evenodd"/></g><defs><clipPath id="a"><path fill="#fff" d="M0 0h12v12H0z"/></clipPath></defs></svg>
